Papirus-GTK/24x24/apps/keurocalc.svg

<svg height="24" width="24" xmlns="http://www.w3.org/2000/svg" xmlns:xlink="http://www.w3.org/1999/xlink"><clipPath id="a"><circle cx="286" cy="26" r="10"/></clipPath><circle cx="12" cy="12" fill="#578cff" r="10"/><circle clip-path="url(#a)" cx="286" cy="26" opacity="0" r="10" stroke-width=".45455" transform="translate(-274 -14)"/><circle clip-path="url(#a)" cx="286" cy="26" opacity="0" r="10" stroke-width=".90908998" transform="translate(-274 -14)"/><path d="m12 2c-5.5395 0-9.999 4.46-9.999 10 0 .08386-.002.166645 0 .25.1321-5.423 4.5435-9.75 9.999-9.75 5.4555 0 9.867 4.3268 9.999 9.75.002-.08335 0-.16614 0-.25 0-5.54-4.4595-10-9.999-10z" fill="#fff" opacity=".2"/><path d="m21.9895 11.709a10 10 0 0 1 -9.9895 9.791 10 10 0 0 1 -9.989-9.709 10 10 0 0 0 -.011.209 10 10 0 0 0  10 10 10 10 0 0 0  10-10 10 10 0 0 0 -.0105-.291z" opacity=".3"/><path d="m12 6.5a6 6 0 0 0 -5.6503906 4h-1.8496094l-.5 1h2.0859375a6 6 0 0 0 -.0859375 1h-.5l-.5 1h1.0898438a6 6 0 0 0 5.9101562 5 6 6 0 0 0  4.462891-2h-1.472657a5 5 0 0 1 -2.990234 1 5 5 0 0 1 -4.8945312-4h5.3945312l.5-1h-6a5 5 0 0 1  .1015625-1h5.3984375l.5-1h-5.5800781a5 5 0 0 1 4.5800781-3 5 5 0 0 1  2.990234 1h1.47461a6 6 0 0 0 -4.464844-2z" opacity=".2"/><path d="m12 6a6 6 0 0 0 -5.6503906 4h-1.8496094l-.5 1h2.0859375a6 6 0 0 0 -.0859375 1h-.5l-.5 1h1.0898438a6 6 0 0 0 5.9101562 5 6 6 0 0 0  4.462891-2h-1.472657a5 5 0 0 1 -2.990234 1 5 5 0 0 1 -4.8945312-4h5.3945312l.5-1h-6a5 5 0 0 1  .1015625-1h5.3984375l.5-1h-5.5800781a5 5 0 0 1 4.5800781-3 5 5 0 0 1  2.990234 1h1.47461a6 6 0 0 0 -4.464844-2z" fill="#fff"/></svg>

<?xml version="1.0" encoding="UTF-8" standalone="no"?>
<!-- Created with Inkscape (http://www.inkscape.org/) -->

<svg
   xmlns:dc="http://purl.org/dc/elements/1.1/"
   xmlns:cc="http://creativecommons.org/ns#"
   xmlns:rdf="http://www.w3.org/1999/02/22-rdf-syntax-ns#"
   xmlns:svg="http://www.w3.org/2000/svg"
   xmlns="http://www.w3.org/2000/svg"
   xmlns:sodipodi="http://sodipodi.sourceforge.net/DTD/sodipodi-0.dtd"
   xmlns:inkscape="http://www.inkscape.org/namespaces/inkscape"
   id="svg2817"
   height="24"
   width="24"
   version="1.0"
   inkscape:version="0.91 r13725"
   sodipodi:docname="keurocalc.svg">
  <sodipodi:namedview
     pagecolor="#ffffff"
     bordercolor="#666666"
     borderopacity="1"
     objecttolerance="10"
     gridtolerance="10"
     guidetolerance="10"
     inkscape:pageopacity="0"
     inkscape:pageshadow="2"
     inkscape:window-width="1600"
     inkscape:window-height="845"
     id="namedview14"
     showgrid="false"
     inkscape:zoom="18.55"
     inkscape:cx="12.485964"
     inkscape:cy="12.23654"
     inkscape:window-x="0"
     inkscape:window-y="32"
     inkscape:window-maximized="1"
     inkscape:current-layer="svg2817" />
  <metadata
     id="metadata57">
    <rdf:RDF>
      <cc:Work
         rdf:about="">
        <dc:format>image/svg+xml</dc:format>
        <dc:type
           rdf:resource="http://purl.org/dc/dcmitype/StillImage" />
        <dc:title />
      </cc:Work>
    </rdf:RDF>
  </metadata>
  <defs
     id="defs2819">
    <clipPath
       id="clipPath4186"
       clipPathUnits="userSpaceOnUse">
      <circle
         id="path4188"
         style="color:#000000"
         cx="286"
         cy="26"
         r="10"
         fill="url(#linearGradient4190)" />
    </clipPath>
  </defs>
  <circle
     id="path4230"
     style="color:#000000;fill:#578cff;fill-opacity:1"
     cy="12"
     cx="12"
     r="10" />
  <circle
     id="path4240"
     style="color:#000000;opacity:0;stroke-width:0.45455"
     clip-path="url(#clipPath4186)"
     transform="translate(-274,-14)"
     cy="26"
     cx="286"
     r="10" />
  <circle
     id="path4242"
     style="color:#000000;opacity:0;stroke-width:0.90908998"
     clip-path="url(#clipPath4186)"
     transform="translate(-274,-14)"
     cy="26"
     cx="286"
     r="10" />
  <path
     style="opacity:0.2;fill:#ffffff"
     inkscape:connector-curvature="0"
     id="rect3436"
     d="M 12,2 C 6.4605,2 2.001,6.46 2.001,12 c 0,0.08386 -0.002,0.166645 0,0.25 C 2.1331,6.827 6.5445,2.5 12,2.5 c 5.4555,0 9.867,4.3268 9.999,9.75 0.002,-0.08335 0,-0.16614 0,-0.25 C 21.999,6.46 17.5395,2 12,2 Z" />
  <path
     inkscape:connector-curvature="0"
     id="circle4330"
     style="color:#000000;opacity:0.3"
     d="M 21.9895,11.709 A 10,10 0 0 1 12,21.5 10,10 0 0 1 2.011,11.791 10,10 0 0 0 2,12 10,10 0 0 0 12,22 10,10 0 0 0 22,12 10,10 0 0 0 21.9895,11.709 Z" />
  <path
     id="path4930"
     d="m 12,6.5 a 6,6 0 0 0 -5.6503906,4 L 4.5,10.5 l -0.5,1 2.0859375,0 A 6,6 0 0 0 6,12.5 l -0.5,0 -0.5,1 1.0898438,0 A 6,6 0 0 0 12,18.5 a 6,6 0 0 0 4.462891,-2 l -1.472657,0 A 5,5 0 0 1 12,17.5 5,5 0 0 1 7.1054688,13.5 l 5.3945312,0 0.5,-1 -6,0 a 5,5 0 0 1 0.1015625,-1 l 5.3984375,0 0.5,-1 -5.5800781,0 A 5,5 0 0 1 12,7.5 a 5,5 0 0 1 2.990234,1 l 1.47461,0 A 6,6 0 0 0 12,6.5 Z"
     style="opacity:0.2;fill:#000000;fill-opacity:1;stroke:none;stroke-width:2;stroke-miterlimit:4;stroke-dasharray:none;stroke-opacity:1"
     inkscape:connector-curvature="0" />
  <path
     style="opacity:1;fill:#ffffff;fill-opacity:1;stroke:none;stroke-width:2;stroke-miterlimit:4;stroke-dasharray:none;stroke-opacity:1"
     d="M 12 6 A 6 6 0 0 0 6.3496094 10 L 4.5 10 L 4 11 L 6.0859375 11 A 6 6 0 0 0 6 12 L 5.5 12 L 5 13 L 6.0898438 13 A 6 6 0 0 0 12 18 A 6 6 0 0 0 16.462891 16 L 14.990234 16 A 5 5 0 0 1 12 17 A 5 5 0 0 1 7.1054688 13 L 12.5 13 L 13 12 L 7 12 A 5 5 0 0 1 7.1015625 11 L 12.5 11 L 13 10 L 7.4199219 10 A 5 5 0 0 1 12 7 A 5 5 0 0 1 14.990234 8 L 16.464844 8 A 6 6 0 0 0 12 6 z "
     id="path4915" />
</svg>
